src/assets/icons/tags.svg

<svg width="14" height="14" viewBox="0 0 14 14" fill="none" xmlns="http://www.w3.org/2000/svg">
<g id="tags">
<g clip-path="url(#clip0_156_4524)">
<path id="Vector" d="M13.5155 5.78142L9.2071 1.47301C9.10585 1.37176 8.96942 1.31503 8.82653 1.31503H6.19696H6.16896H0.538582C0.241301 1.31503 3.05176e-05 1.5563 3.05176e-05 1.85358V7.51196C3.05176e-05 7.65485 0.0567588 7.79201 0.158006 7.89254L4.46713 12.1959C4.78236 12.5112 5.20172 12.6849 5.64836 12.6849H5.64908C6.095 12.6849 6.51435 12.5111 6.82958 12.1952L6.99043 12.0344C7.01628 12.0925 7.05003 12.1478 7.09742 12.1959C7.42342 12.5212 7.85067 12.6842 8.27792 12.6842C8.70661 12.6842 9.13386 12.5205 9.45986 12.1952L13.5184 8.13668C14.1611 7.48827 14.1611 6.43199 13.5155 5.78142ZM6.06699 11.434C5.95497 11.5461 5.80633 11.6078 5.64764 11.6078C5.48894 11.6078 5.33959 11.5461 5.22757 11.434L1.07713 7.28864V2.39214H5.97364L10.1226 6.54185C10.3517 6.77235 10.3517 7.14718 10.1234 7.37768L6.06699 11.434ZM12.7544 7.37697L8.69728 11.434C8.46677 11.6645 8.08907 11.6653 7.85857 11.4348C7.81118 11.3874 7.75517 11.3536 7.697 11.3278L10.8867 8.13812L10.8874 8.13739C11.5336 7.48826 11.5336 6.43199 10.8867 5.78142L7.49738 2.39214H8.60392L12.7529 6.54113C12.982 6.77235 12.982 7.14719 12.7544 7.37697ZM4.30844 4.48674C4.30844 4.98148 3.90561 5.38432 3.41086 5.38432C2.91611 5.38432 2.51327 4.98148 2.51327 4.48674C2.51327 3.99199 2.91611 3.58915 3.41086 3.58915C3.90561 3.58915 4.30844 3.99199 4.30844 4.48674Z" fill="black"/>
</g>
</g>
<defs>
<clipPath id="clip0_156_4524">
<rect width="14" height="14" fill="white"/>
</clipPath>
</defs>
</svg>

<svg xmlns="http://www.w3.org/2000/svg" fill="none" viewBox="0 0 14 14"><g clip-path="url(#a)"><path fill="#000" d="M13.516 5.781 9.206 1.473a.54.54 0 0 0-.38-.158H.539A.54.54 0 0 0 0 1.854v5.658c0 .143.057.28.158.38l4.31 4.304c.314.315.734.489 1.18.489h.001c.446 0 .865-.174 1.18-.49l.161-.16q.038.088.107.16a1.668 1.668 0 0 0 2.362 0l4.06-4.058a1.677 1.677 0 0 0-.004-2.356m-7.449 5.653a.59.59 0 0 1-.84 0l-4.15-4.145V2.392h4.897l4.149 4.15c.229.23.229.605 0 .836zm6.687-4.057-4.057 4.057a.595.595 0 0 1-.838 0 .5.5 0 0 0-.162-.106l3.19-3.19a1.673 1.673 0 0 0 0-2.357l-3.39-3.389h1.107l4.149 4.15c.229.23.229.605.001.835m-8.446-2.89a.899.899 0 0 1-1.795 0 .899.899 0 0 1 1.795 0"/></g><defs><clipPath id="a"><path fill="#fff" d="M0 0h14v14H0z"/></clipPath></defs></svg>
